(G-CODE GENERATED BY FLATCAM v8.991 - www.flatcam.org - Version Date: 2019/12/27)

(Name: mcu.cas_cutout_cnc)
(Type: G-code from Geometry)
(Units: MM)

(Created on Saturday, 06 March 2021 at 16:43)

(TOOL DIAMETER: 0.8 mm)
(Feedrate: 120.0 mm/min)
(Feedrate_Z: 60.0 mm/min)
(Feedrate rapids 1500.0 mm/min)

(Z_Cut: -2.0 mm)
(DepthPerCut: 0.5 mm <=>4 passes)
(Z_Move: 2.0 mm)
(Z Toolchange: 15.0 mm)
(X,Y Toolchange: 0.0000, 0.0000 mm)
(Z Start: None mm)
(Z End: 15.0 mm)
(Steps per circle: 64)
(Preprocessor Geometry: default)

(X range:   -0.6033 ...  103.1484  mm)
(Y range:   -0.6033 ...   35.0714  mm)

(Spindle Speed: None RPM)
G21
G90
G94




G01 F120.00
G00 Z2.0000

M03
G00 X-0.6033 Y15.8340
G01 F60.00
G01 Z-0.5000
G01 F120.00
G01 X-0.6033 Y-0.2033
G01 X-0.6014 Y-0.2425
G01 X-0.5956 Y-0.2813
G01 X-0.5861 Y-0.3194
G01 X-0.5729 Y-0.3564
G01 X-0.5561 Y-0.3919
G01 X-0.5359 Y-0.4255
G01 X-0.5125 Y-0.4571
G01 X-0.4861 Y-0.4861
G01 X-0.4571 Y-0.5125
G01 X-0.4255 Y-0.5359
G01 X-0.3919 Y-0.5561
G01 X-0.3564 Y-0.5729
G01 X-0.3194 Y-0.5861
G01 X-0.2813 Y-0.5956
G01 X-0.2425 Y-0.6014
G01 X-0.2033 Y-0.6033
G01 X49.8726 Y-0.6033
G00 X49.8726 Y-0.6033
G01 F60.00
G01 Z-1.0000
G01 F120.00
G01 X-0.2033 Y-0.6033
G01 X-0.2425 Y-0.6014
G01 X-0.2813 Y-0.5956
G01 X-0.3194 Y-0.5861
G01 X-0.3564 Y-0.5729
G01 X-0.3919 Y-0.5561
G01 X-0.4255 Y-0.5359
G01 X-0.4571 Y-0.5125
G01 X-0.4861 Y-0.4861
G01 X-0.5125 Y-0.4571
G01 X-0.5359 Y-0.4255
G01 X-0.5561 Y-0.3919
G01 X-0.5729 Y-0.3564
G01 X-0.5861 Y-0.3194
G01 X-0.5956 Y-0.2813
G01 X-0.6014 Y-0.2425
G01 X-0.6033 Y-0.2033
G01 X-0.6033 Y15.8340
G00 X-0.6033 Y15.8340
G01 F60.00
G01 Z-1.5000
G01 F120.00
G01 X-0.6033 Y-0.2033
G01 X-0.6014 Y-0.2425
G01 X-0.5956 Y-0.2813
G01 X-0.5861 Y-0.3194
G01 X-0.5729 Y-0.3564
G01 X-0.5561 Y-0.3919
G01 X-0.5359 Y-0.4255
G01 X-0.5125 Y-0.4571
G01 X-0.4861 Y-0.4861
G01 X-0.4571 Y-0.5125
G01 X-0.4255 Y-0.5359
G01 X-0.3919 Y-0.5561
G01 X-0.3564 Y-0.5729
G01 X-0.3194 Y-0.5861
G01 X-0.2813 Y-0.5956
G01 X-0.2425 Y-0.6014
G01 X-0.2033 Y-0.6033
G01 X49.8726 Y-0.6033
G00 X49.8726 Y-0.6033
G01 F60.00
G01 Z-2.0000
G01 F120.00
G01 X-0.2033 Y-0.6033
G01 X-0.2425 Y-0.6014
G01 X-0.2813 Y-0.5956
G01 X-0.3194 Y-0.5861
G01 X-0.3564 Y-0.5729
G01 X-0.3919 Y-0.5561
G01 X-0.4255 Y-0.5359
G01 X-0.4571 Y-0.5125
G01 X-0.4861 Y-0.4861
G01 X-0.5125 Y-0.4571
G01 X-0.5359 Y-0.4255
G01 X-0.5561 Y-0.3919
G01 X-0.5729 Y-0.3564
G01 X-0.5861 Y-0.3194
G01 X-0.5956 Y-0.2813
G01 X-0.6014 Y-0.2425
G01 X-0.6033 Y-0.2033
G01 X-0.6033 Y15.8340
G00 Z2.0000
G00 X-0.6033 Y18.6340
G01 F60.00
G01 Z-0.5000
G01 F120.00
G01 X-0.6033 Y34.6714
G01 X-0.6014 Y34.7106
G01 X-0.5956 Y34.7494
G01 X-0.5861 Y34.7875
G01 X-0.5729 Y34.8244
G01 X-0.5561 Y34.8599
G01 X-0.5359 Y34.8936
G01 X-0.5125 Y34.9251
G01 X-0.4861 Y34.9542
G01 X-0.4571 Y34.9806
G01 X-0.4255 Y35.0039
G01 X-0.3919 Y35.0241
G01 X-0.3564 Y35.0409
G01 X-0.3194 Y35.0541
G01 X-0.2813 Y35.0637
G01 X-0.2425 Y35.0694
G01 X-0.2033 Y35.0714
G01 X49.8726 Y35.0714
G00 X49.8726 Y35.0714
G01 F60.00
G01 Z-1.0000
G01 F120.00
G01 X-0.2033 Y35.0714
G01 X-0.2425 Y35.0694
G01 X-0.2813 Y35.0637
G01 X-0.3194 Y35.0541
G01 X-0.3564 Y35.0409
G01 X-0.3919 Y35.0241
G01 X-0.4255 Y35.0039
G01 X-0.4571 Y34.9806
G01 X-0.4861 Y34.9542
G01 X-0.5125 Y34.9251
G01 X-0.5359 Y34.8936
G01 X-0.5561 Y34.8599
G01 X-0.5729 Y34.8244
G01 X-0.5861 Y34.7875
G01 X-0.5956 Y34.7494
G01 X-0.6014 Y34.7106
G01 X-0.6033 Y34.6714
G01 X-0.6033 Y18.6340
G00 X-0.6033 Y18.6340
G01 F60.00
G01 Z-1.5000
G01 F120.00
G01 X-0.6033 Y34.6714
G01 X-0.6014 Y34.7106
G01 X-0.5956 Y34.7494
G01 X-0.5861 Y34.7875
G01 X-0.5729 Y34.8244
G01 X-0.5561 Y34.8599
G01 X-0.5359 Y34.8936
G01 X-0.5125 Y34.9251
G01 X-0.4861 Y34.9542
G01 X-0.4571 Y34.9806
G01 X-0.4255 Y35.0039
G01 X-0.3919 Y35.0241
G01 X-0.3564 Y35.0409
G01 X-0.3194 Y35.0541
G01 X-0.2813 Y35.0637
G01 X-0.2425 Y35.0694
G01 X-0.2033 Y35.0714
G01 X49.8726 Y35.0714
G00 X49.8726 Y35.0714
G01 F60.00
G01 Z-2.0000
G01 F120.00
G01 X-0.2033 Y35.0714
G01 X-0.2425 Y35.0694
G01 X-0.2813 Y35.0637
G01 X-0.3194 Y35.0541
G01 X-0.3564 Y35.0409
G01 X-0.3919 Y35.0241
G01 X-0.4255 Y35.0039
G01 X-0.4571 Y34.9806
G01 X-0.4861 Y34.9542
G01 X-0.5125 Y34.9251
G01 X-0.5359 Y34.8936
G01 X-0.5561 Y34.8599
G01 X-0.5729 Y34.8244
G01 X-0.5861 Y34.7875
G01 X-0.5956 Y34.7494
G01 X-0.6014 Y34.7106
G01 X-0.6033 Y34.6714
G01 X-0.6033 Y18.6340
G00 Z2.0000
G00 X52.6726 Y35.0714
G01 F60.00
G01 Z-0.5000
G01 F120.00
G01 X102.7484 Y35.0714
G01 X102.7876 Y35.0694
G01 X102.8265 Y35.0637
G01 X102.8645 Y35.0541
G01 X102.9015 Y35.0409
G01 X102.9370 Y35.0241
G01 X102.9707 Y35.0039
G01 X103.0022 Y34.9806
G01 X103.0313 Y34.9542
G01 X103.0576 Y34.9251
G01 X103.0810 Y34.8936
G01 X103.1012 Y34.8599
G01 X103.1180 Y34.8244
G01 X103.1312 Y34.7875
G01 X103.1407 Y34.7494
G01 X103.1465 Y34.7106
G01 X103.1484 Y34.6714
G01 X103.1484 Y18.6340
G00 X103.1484 Y18.6340
G01 F60.00
G01 Z-1.0000
G01 F120.00
G01 X103.1484 Y34.6714
G01 X103.1465 Y34.7106
G01 X103.1407 Y34.7494
G01 X103.1312 Y34.7875
G01 X103.1180 Y34.8244
G01 X103.1012 Y34.8599
G01 X103.0810 Y34.8936
G01 X103.0576 Y34.9251
G01 X103.0313 Y34.9542
G01 X103.0022 Y34.9806
G01 X102.9707 Y35.0039
G01 X102.9370 Y35.0241
G01 X102.9015 Y35.0409
G01 X102.8645 Y35.0541
G01 X102.8265 Y35.0637
G01 X102.7876 Y35.0694
G01 X102.7484 Y35.0714
G01 X52.6726 Y35.0714
G00 X52.6726 Y35.0714
G01 F60.00
G01 Z-1.5000
G01 F120.00
G01 X102.7484 Y35.0714
G01 X102.7876 Y35.0694
G01 X102.8265 Y35.0637
G01 X102.8645 Y35.0541
G01 X102.9015 Y35.0409
G01 X102.9370 Y35.0241
G01 X102.9707 Y35.0039
G01 X103.0022 Y34.9806
G01 X103.0313 Y34.9542
G01 X103.0576 Y34.9251
G01 X103.0810 Y34.8936
G01 X103.1012 Y34.8599
G01 X103.1180 Y34.8244
G01 X103.1312 Y34.7875
G01 X103.1407 Y34.7494
G01 X103.1465 Y34.7106
G01 X103.1484 Y34.6714
G01 X103.1484 Y18.6340
G00 X103.1484 Y18.6340
G01 F60.00
G01 Z-2.0000
G01 F120.00
G01 X103.1484 Y34.6714
G01 X103.1465 Y34.7106
G01 X103.1407 Y34.7494
G01 X103.1312 Y34.7875
G01 X103.1180 Y34.8244
G01 X103.1012 Y34.8599
G01 X103.0810 Y34.8936
G01 X103.0576 Y34.9251
G01 X103.0313 Y34.9542
G01 X103.0022 Y34.9806
G01 X102.9707 Y35.0039
G01 X102.9370 Y35.0241
G01 X102.9015 Y35.0409
G01 X102.8645 Y35.0541
G01 X102.8265 Y35.0637
G01 X102.7876 Y35.0694
G01 X102.7484 Y35.0714
G01 X52.6726 Y35.0714
G00 Z2.0000
G00 X52.6726 Y-0.6033
G01 F60.00
G01 Z-0.5000
G01 F120.00
G01 X102.7484 Y-0.6033
G00 X102.7484 Y-0.6033
G01 F60.00
G01 Z-1.0000
G01 F120.00
G01 X52.6726 Y-0.6033
G00 X52.6726 Y-0.6033
G01 F60.00
G01 Z-1.5000
G01 F120.00
G01 X102.7484 Y-0.6033
G00 X102.7484 Y-0.6033
G01 F60.00
G01 Z-2.0000
G01 F120.00
G01 X52.6726 Y-0.6033
G00 Z2.0000
G00 X102.7484 Y-0.6033
G01 F60.00
G01 Z-0.5000
G01 F120.00
G01 X102.7876 Y-0.6014
G01 X102.8265 Y-0.5956
G01 X102.8645 Y-0.5861
G01 X102.9015 Y-0.5729
G01 X102.9370 Y-0.5561
G01 X102.9707 Y-0.5359
G01 X103.0022 Y-0.5125
G01 X103.0313 Y-0.4861
G01 X103.0576 Y-0.4571
G01 X103.0810 Y-0.4255
G01 X103.1012 Y-0.3919
G01 X103.1180 Y-0.3564
G01 X103.1312 Y-0.3194
G01 X103.1407 Y-0.2813
G01 X103.1465 Y-0.2425
G01 X103.1484 Y-0.2033
G01 X103.1484 Y15.8340
G00 X103.1484 Y15.8340
G01 F60.00
G01 Z-1.0000
G01 F120.00
G01 X103.1484 Y-0.2033
G01 X103.1465 Y-0.2425
G01 X103.1407 Y-0.2813
G01 X103.1312 Y-0.3194
G01 X103.1180 Y-0.3564
G01 X103.1012 Y-0.3919
G01 X103.0810 Y-0.4255
G01 X103.0576 Y-0.4571
G01 X103.0313 Y-0.4861
G01 X103.0022 Y-0.5125
G01 X102.9707 Y-0.5359
G01 X102.9370 Y-0.5561
G01 X102.9015 Y-0.5729
G01 X102.8645 Y-0.5861
G01 X102.8265 Y-0.5956
G01 X102.7876 Y-0.6014
G01 X102.7484 Y-0.6033
G00 X102.7484 Y-0.6033
G01 F60.00
G01 Z-1.5000
G01 F120.00
G01 X102.7876 Y-0.6014
G01 X102.8265 Y-0.5956
G01 X102.8645 Y-0.5861
G01 X102.9015 Y-0.5729
G01 X102.9370 Y-0.5561
G01 X102.9707 Y-0.5359
G01 X103.0022 Y-0.5125
G01 X103.0313 Y-0.4861
G01 X103.0576 Y-0.4571
G01 X103.0810 Y-0.4255
G01 X103.1012 Y-0.3919
G01 X103.1180 Y-0.3564
G01 X103.1312 Y-0.3194
G01 X103.1407 Y-0.2813
G01 X103.1465 Y-0.2425
G01 X103.1484 Y-0.2033
G01 X103.1484 Y15.8340
G00 X103.1484 Y15.8340
G01 F60.00
G01 Z-2.0000
G01 F120.00
G01 X103.1484 Y-0.2033
G01 X103.1465 Y-0.2425
G01 X103.1407 Y-0.2813
G01 X103.1312 Y-0.3194
G01 X103.1180 Y-0.3564
G01 X103.1012 Y-0.3919
G01 X103.0810 Y-0.4255
G01 X103.0576 Y-0.4571
G01 X103.0313 Y-0.4861
G01 X103.0022 Y-0.5125
G01 X102.9707 Y-0.5359
G01 X102.9370 Y-0.5561
G01 X102.9015 Y-0.5729
G01 X102.8645 Y-0.5861
G01 X102.8265 Y-0.5956
G01 X102.7876 Y-0.6014
G01 X102.7484 Y-0.6033
G00 Z2.0000
M05
G00 Z2.0000
G00 Z15.00
G00 X0.0 Y0.0

