(G-CODE GENERATED BY FLATCAM v8.991 - www.flatcam.org - Version Date: 2019/12/27)

(Name: mcu.drd_edit_cnc)
(Type: G-code from Excellon)
(Units: MM)

(Created on Saturday, 06 March 2021 at 16:44)

(Feedrate: 60.0 mm/min)
(Feedrate rapids 1500.0 mm/min)

(Z_Cut: -2.0 mm)
(Z_Move: 2.0 mm)
(Z Toolchange: 25.0 mm)
(X,Y Toolchange: 0.0000, 0.0000 mm)
(Z Start: None mm)
(Z End: 25.0 mm)
(Steps per circle: 64)
(Preprocessor Excellon: default)

(X range:    1.9860 ...   99.1060  mm)
(Y range:    2.1384 ...   32.0246  mm)

(Spindle Speed: 10000.0 RPM)
G21
G90
G94




G01 F60.00
G00 Z2.0000

M03 S10000.0
G00 X98.6028 Y28.3972
G01 Z-2.0000
G01 Z0
G00 Z2.0000
G00 X98.6028 Y29.6672
G01 Z-2.0000
G01 Z0
G00 Z2.0000
G00 X98.6028 Y30.9372
G01 Z-2.0000
G01 Z0
G00 Z2.0000
G00 X91.5924 Y25.2984
G01 Z-2.0000
G01 Z0
G00 Z2.0000
G00 X92.0496 Y27.7368
G01 Z-2.0000
G01 Z0
G00 Z2.0000
G00 X88.2777 Y31.7246
G01 Z-2.0000
G01 Z0
G00 Z2.0000
G00 X85.7377 Y31.7246
G01 Z-2.0000
G01 Z0
G00 Z2.0000
G00 X83.1977 Y31.7246
G01 Z-2.0000
G01 Z0
G00 Z2.0000
G00 X80.6577 Y31.7246
G01 Z-2.0000
G01 Z0
G00 Z2.0000
G00 X78.1177 Y31.7246
G01 Z-2.0000
G01 Z0
G00 Z2.0000
G00 X75.5777 Y31.7246
G01 Z-2.0000
G01 Z0
G00 Z2.0000
G00 X73.0377 Y31.7246
G01 Z-2.0000
G01 Z0
G00 Z2.0000
G00 X70.4977 Y31.7246
G01 Z-2.0000
G01 Z0
G00 Z2.0000
G00 X79.4004 Y25.4508
G01 Z-2.0000
G01 Z0
G00 Z2.0000
G00 X78.3336 Y23.0124
G01 Z-2.0000
G01 Z0
G00 Z2.0000
G00 X79.7052 Y20.8788
G01 Z-2.0000
G01 Z0
G00 Z2.0000
G00 X67.3608 Y19.5072
G01 Z-2.0000
G01 Z0
G00 Z2.0000
G00 X67.5132 Y22.2504
G01 Z-2.0000
G01 Z0
G00 Z2.0000
G00 X61.1124 Y20.7264
G01 Z-2.0000
G01 Z0
G00 Z2.0000
G00 X67.9577 Y31.7246
G01 Z-2.0000
G01 Z0
G00 Z2.0000
G00 X65.4177 Y31.7246
G01 Z-2.0000
G01 Z0
G00 Z2.0000
G00 X62.8777 Y31.7246
G01 Z-2.0000
G01 Z0
G00 Z2.0000
G00 X60.3377 Y31.7246
G01 Z-2.0000
G01 Z0
G00 Z2.0000
G00 X57.7977 Y31.7246
G01 Z-2.0000
G01 Z0
G00 Z2.0000
G00 X55.2577 Y31.7246
G01 Z-2.0000
G01 Z0
G00 Z2.0000
G00 X52.7177 Y31.7246
G01 Z-2.0000
G01 Z0
G00 Z2.0000
G00 X50.1777 Y31.7246
G01 Z-2.0000
G01 Z0
G00 Z2.0000
G00 X47.6377 Y31.7246
G01 Z-2.0000
G01 Z0
G00 Z2.0000
G00 X45.0977 Y31.7246
G01 Z-2.0000
G01 Z0
G00 Z2.0000
G00 X50.1396 Y20.8788
G01 Z-2.0000
G01 Z0
G00 Z2.0000
G00 X44.0436 Y19.0500
G01 Z-2.0000
G01 Z0
G00 Z2.0000
G00 X40.2336 Y17.6784
G01 Z-2.0000
G01 Z0
G00 Z2.0000
G00 X42.8244 Y23.9268
G01 Z-2.0000
G01 Z0
G00 Z2.0000
G00 X42.5577 Y31.7246
G01 Z-2.0000
G01 Z0
G00 Z2.0000
G00 X40.0177 Y31.7246
G01 Z-2.0000
G01 Z0
G00 Z2.0000
G00 X37.4777 Y31.7246
G01 Z-2.0000
G01 Z0
G00 Z2.0000
G00 X34.9377 Y31.7246
G01 Z-2.0000
G01 Z0
G00 Z2.0000
G00 X32.3977 Y31.7246
G01 Z-2.0000
G01 Z0
G00 Z2.0000
G00 X29.8577 Y31.7246
G01 Z-2.0000
G01 Z0
G00 Z2.0000
G00 X33.6804 Y17.0688
G01 Z-2.0000
G01 Z0
G00 Z2.0000
G00 X15.6972 Y12.4968
G01 Z-2.0000
G01 Z0
G00 Z2.0000
G00 X15.8496 Y16.6116
G01 Z-2.0000
G01 Z0
G00 Z2.0000
G00 X11.8872 Y16.1544
G01 Z-2.0000
G01 Z0
G00 Z2.0000
G00 X6.5532 Y10.2108
G01 Z-2.0000
G01 Z0
G00 Z2.0000
G00 X2.2860 Y2.4384
G01 Z-2.0000
G01 Z0
G00 Z2.0000
G00 X12.3444 Y4.1148
G01 Z-2.0000
G01 Z0
G00 Z2.0000
G00 X12.8016 Y6.5532
G01 Z-2.0000
G01 Z0
G00 Z2.0000
G00 X20.2692 Y3.5052
G01 Z-2.0000
G01 Z0
G00 Z2.0000
G00 X29.8577 Y6.2245
G01 Z-2.0000
G01 Z0
G00 Z2.0000
G00 X32.3977 Y6.2245
G01 Z-2.0000
G01 Z0
G00 Z2.0000
G00 X34.9377 Y6.2245
G01 Z-2.0000
G01 Z0
G00 Z2.0000
G00 X49.5300 Y8.0772
G01 Z-2.0000
G01 Z0
G00 Z2.0000
G00 X53.0352 Y5.3340
G01 Z-2.0000
G01 Z0
G00 Z2.0000
G00 X63.0936 Y8.9916
G01 Z-2.0000
G01 Z0
G00 Z2.0000
G00 X69.4944 Y8.0772
G01 Z-2.0000
G01 Z0
G00 Z2.0000
G00 X71.7804 Y7.4676
G01 Z-2.0000
G01 Z0
G00 Z2.0000
G00 X74.0664 Y7.3152
G01 Z-2.0000
G01 Z0
G00 Z2.0000
G00 X73.1520 Y12.1920
G01 Z-2.0000
G01 Z0
G00 Z2.0000
G00 X76.0476 Y9.7536
G01 Z-2.0000
G01 Z0
G00 Z2.0000
G00 X78.4860 Y10.6680
G01 Z-2.0000
G01 Z0
G00 Z2.0000
G00 X83.1977 Y6.2245
G01 Z-2.0000
G01 Z0
G00 Z2.0000
G00 X85.7377 Y6.2245
G01 Z-2.0000
G01 Z0
G00 Z2.0000
G00 X88.2777 Y6.2245
G01 Z-2.0000
G01 Z0
G00 Z2.0000
G00 X90.6780 Y9.1440
G01 Z-2.0000
G01 Z0
G00 Z2.0000
G00 X85.9536 Y11.8872
G01 Z-2.0000
G01 Z0
G00 Z2.0000
G00 X90.8304 Y12.6492
G01 Z-2.0000
G01 Z0
G00 Z2.0000
G00 X89.3064 Y20.4216
G01 Z-2.0000
G01 Z0
G00 Z2.0000
G00 X94.4880 Y19.8120
G01 Z-2.0000
G01 Z0
G00 Z2.0000
G00 X95.2500 Y14.6304
G01 Z-2.0000
G01 Z0
G00 Z2.0000
G00 X98.8060 Y8.2296
G01 Z-2.0000
G01 Z0
G00 Z2.0000
G00 X98.8060 Y10.7696
G01 Z-2.0000
G01 Z0
G00 Z2.0000
G00 X98.8060 Y13.3096
G01 Z-2.0000
G01 Z0
G00 Z2.0000
G00 X98.8060 Y15.8496
G01 Z-2.0000
G01 Z0
G00 Z2.0000
G00 X98.8060 Y18.3896
G01 Z-2.0000
G01 Z0
G00 Z2.0000
G00 X98.7552 Y20.6248
G01 Z-2.0000
G01 Z0
G00 Z2.0000
G00 X98.7552 Y23.1648
G01 Z-2.0000
G01 Z0
G00 Z2.0000
G00 X98.7552 Y25.7048
G01 Z-2.0000
G01 Z0
G00 Z2.0000
M05
G00 Z25.00
G00 X0.0 Y0.0

